dist/images/socialMedia/facebook.svg

<svg width="7" height="13" viewBox="0 0 7 13" fill="none" xmlns="http://www.w3.org/2000/svg">
<path d="M5.31426 2.1582H6.5V0.0914062C6.29688 0.0634766 5.59102 0 4.7709 0C3.05957 0 1.88906 1.07656 1.88906 3.05449V4.875H0V7.18555H1.88906V13H4.20469V7.18555H6.01758L6.30449 4.875H4.20469V3.28301C4.20215 2.61523 4.38242 2.1582 5.31426 2.1582Z" fill="white"/>
</svg>

<svg width="7" height="13" fill="none" xmlns="http://www.w3.org/2000/svg"><path d="M5.314 2.158H6.5V.091A15.37 15.37 0 0 0 4.77 0C3.06 0 1.89 1.077 1.89 3.054v1.821H0v2.31h1.89V13h2.315V7.186h1.813l.286-2.311h-2.1V3.283c-.002-.668.178-1.125 1.11-1.125z" fill="#fff"/></svg>
